images/header/loup.svg

<svg xmlns="http://www.w3.org/2000/svg" width="16" height="17"><path fill-rule="evenodd" fill="%23000000" d="M15.377 15.073l-3.756-3.96a6.493 6.493 0 0 0 1.495-4.153c0-3.562-2.858-6.46-6.371-6.46C3.233.5.375 3.398.375 6.96s2.858 6.46 6.37 6.46a6.248 6.248 0 0 0 3.65-1.169l3.784 3.99a.818.818 0 0 0 1.174.023.851.851 0 0 0 .024-1.191zM6.745 2.185c2.597 0 4.709 2.142 4.709 4.775 0 2.633-2.112 4.774-4.709 4.774-2.596 0-4.709-2.141-4.709-4.774s2.113-4.775 4.709-4.775z"/></svg>

<svg xmlns="http://www.w3.org/2000/svg" width="16px" height="17px">
    <path fill-rule="evenodd"  fill="%23000000" d="M15.377,15.073 L11.621,11.113 C12.587,9.949 13.116,8.484 13.116,6.960 C13.116,3.398 10.258,0.500 6.745,0.500 C3.233,0.500 0.375,3.398 0.375,6.960 C0.375,10.522 3.233,13.420 6.745,13.420 C8.064,13.420 9.320,13.016 10.395,12.251 L14.179,16.241 C14.337,16.408 14.550,16.500 14.778,16.500 C14.993,16.500 15.198,16.416 15.353,16.264 C15.684,15.942 15.694,15.408 15.377,15.073 ZM6.745,2.185 C9.342,2.185 11.454,4.327 11.454,6.960 C11.454,9.593 9.342,11.734 6.745,11.734 C4.149,11.734 2.036,9.593 2.036,6.960 C2.036,4.327 4.149,2.185 6.745,2.185 Z"/>
</svg>
